X: 20073
Q: "With spirit."
M: 3/4
L: 1/4
K: Bb
[|\
[|\
b2a | b2f | fg_a | g2f | gab | b2f | gfd | c2c |\
gfe | def | gfe | def | ged | e>ed | cBA | B3 |]


